svgs/pinduoduo.svg

<svg xmlns="http://www.w3.org/2000/svg" viewBox="0 0 192 192"><path fill="none" stroke="#000" stroke-linecap="round" stroke-linejoin="round" stroke-miterlimit="10" stroke-width="12" d="M97.2 56.5 60.5 30.8M24 56l36.5-25.2m-36.7 77.4L24 56m73.2 104.6-73.4-52.4m74.6-51.1 36.8-25.7m36.5 25.1-36.5-25.1m36.6 77.4-.1-52.3M98.4 161.2l73.4-52.4M48.3 73v33.8m0-33.8c5.6-5.9 14.8-5.5 19.2-.2 3.8 4.5 3.6 11.9-.8 16.3-3.5 3.6-9.1 4.6-13.9 2.5m34.9-16v33.9c6.8 2.8 14.5 1.3 19.4-3.8 5.7-5.8 5.8-14.5 2.8-20.5-3.8-7.7-13-11.8-22.2-9.6zm42.7-4.7v33.9c6.8 2.8 14.5 1.3 19.4-3.8 5.7-5.8 5.8-14.5 2.8-20.5-3.8-7.6-13-11.8-22.2-9.6z"/></svg>

<svg xmlns="http://www.w3.org/2000/svg" xml:space="preserve" id="图层_2" x="0" y="0" style="enable-background:new 0 0 192 192" version="1.1" viewBox="0 0 192 192"><style>.st0{fill:none;stroke:#000;stroke-width:12;stroke-linecap:round;stroke-linejoin:round;stroke-miterlimit:10}</style><path d="M97.2 56.5 60.5 30.8M24 56l36.5-25.2M23.8 108.2 24 56M97.2 160.6l-73.4-52.4M98.4 57.1l36.8-25.7M171.7 56.5l-36.5-25.1M171.8 108.8l-.1-52.3M98.4 161.2l73.4-52.4M48.3 73v33.8M48.3 73c5.6-5.9 14.8-5.5 19.2-.2 3.8 4.5 3.6 11.9-.8 16.3-3.5 3.6-9.1 4.6-13.9 2.5M87.7 75.6v33.9c6.8 2.8 14.5 1.3 19.4-3.8 5.7-5.8 5.8-14.5 2.8-20.5-3.8-7.7-13-11.8-22.2-9.6zM130.4 70.9v33.9c6.8 2.8 14.5 1.3 19.4-3.8 5.7-5.8 5.8-14.5 2.8-20.5-3.8-7.6-13-11.8-22.2-9.6z" class="st0"/></svg>
